_inc/systems/logos/ggh.svg

<?xml version="1.0" encoding="utf-8"?>
<svg version="1.1" id="Layer_1" x="0px" y="0px" enable-background="new 0 0 566.929 67.639" viewBox="0 0 264 44" xmlns="http://www.w3.org/2000/svg">
  <g transform="matrix(0.44, 0, 0, 0.435372, -0.000108, 0.000185)">
    <path id="path5" d="M 225.74 59.585 C 220.683 66.455 215.674 68.407 213.483 69.46 C 211.296 70.516 207.98 71.343 205.08 71.343 C 196.943 71.343 190.594 68.691 186.029 63.405 C 181.464 58.097 179.183 50.657 179.183 41.004 C 179.183 29.596 182.061 19.919 187.842 11.932 C 193.621 3.97 201.284 0.002 210.834 0.002 C 218.079 0.002 224.005 2.036 228.645 6.127 C 233.283 10.198 235.591 16.597 235.591 25.302 L 221.576 25.302 C 221.576 21.135 220.656 18.208 218.818 16.522 C 216.986 14.859 214.352 14.014 210.907 14.014 C 205.276 14.014 200.934 16.769 197.833 22.252 C 194.758 27.758 193.192 34.007 193.192 41.028 C 193.192 45.817 194.212 49.736 196.194 52.76 C 198.204 55.813 201.203 57.325 205.201 57.325 C 209.368 57.325 212.59 56.133 214.923 53.776 C 217.231 51.447 218.942 48.418 220.034 44.721 L 206.984 44.721 L 209.096 32.022 L 234.544 32.022 L 232.387 44.323 C 232.39 44.329 230.776 52.714 225.74 59.585 L 225.74 59.585 Z" style="fill-opacity: 1; fill: rgb(255, 255, 255);"/>
    <polygon id="polygon9" points="346.74 1.764 335.355 69.684 323.102 69.684 332.751 17.044 311.467 69.684 301.423 69.684 296.785 17.068 289.462 69.684 277.064 69.684 288.397 1.764 305.789 1.764 309.684 49.588 329.23 1.637" style="fill-opacity: 1; fill: rgb(255, 255, 255);"/>
    <polygon id="polygon11" points="359.714 28.057 379.734 28.057 377.646 41.23 357.629 41.23 355.052 55.692 377.646 55.692 375.419 69.684 339.797 69.684 351.057 1.689 386.254 1.689 384.1 15.777 361.947 15.777" style="fill-opacity: 1; fill: rgb(255, 255, 255);"/>
    <path id="path13" d="M 253.028 1.637 L 225.643 69.684 L 238.989 69.684 L 243.874 56.411 L 261.338 56.411 L 262.478 69.684 L 275.401 69.684 L 267.662 1.64 L 253.028 1.64 Z M 248.116 44.803 L 258.04 17.738 L 260.345 44.803 L 248.116 44.803 Z" style="fill-opacity: 1; fill: rgb(255, 255, 255);"/>
    <path id="path5_1_" d="M 455.384 59.585 C 450.324 66.455 445.321 68.407 443.13 69.46 C 440.94 70.516 437.624 71.343 434.724 71.343 C 426.59 71.343 420.238 68.691 415.676 63.408 C 411.108 58.097 408.827 50.657 408.827 41.007 C 408.827 29.596 411.705 19.922 417.486 11.935 C 423.264 3.973 430.928 0.002 440.481 0.002 C 447.723 0.002 453.652 2.039 458.289 6.13 C 462.93 10.201 465.235 16.6 465.235 25.305 L 451.223 25.305 C 451.223 21.138 450.306 18.211 448.468 16.525 C 446.633 14.862 444.002 14.02 440.554 14.02 C 434.923 14.02 430.581 16.772 427.483 22.255 C 424.405 27.761 422.842 34.01 422.842 41.031 C 422.842 45.82 423.859 49.739 425.841 52.763 C 427.854 55.816 430.853 57.328 434.848 57.328 C 439.018 57.328 442.24 56.139 444.573 53.779 C 446.881 51.45 448.592 48.424 449.684 44.725 L 436.634 44.725 L 438.743 32.025 L 464.194 32.025 L 462.034 44.329 C 462.034 44.329 460.42 52.714 455.384 59.585 L 455.384 59.585 Z" style="fill-opacity: 1; fill: rgb(255, 255, 255);"/>
    <polygon id="polygon15" points="481.532 28.081 501.524 28.081 499.466 41.23 479.447 41.23 476.846 55.692 499.466 55.692 497.234 69.705 461.611 69.705 472.875 1.689 508.075 1.689 505.917 15.777 483.761 15.777" style="fill-opacity: 1; fill: rgb(255, 255, 255);"/>
    <path id="path17" d="M 525.783 1.665 L 498.398 69.708 L 511.771 69.708 L 516.629 56.435 L 534.117 56.435 L 535.258 69.708 L 548.157 69.708 L 540.417 1.665 L 525.783 1.665 Z M 520.895 44.8 L 530.795 17.738 L 533.127 44.8 L 520.895 44.8 Z" style="fill-opacity: 1; fill: rgb(255, 255, 255);"/>
    <path id="path19" d="M 568.846 31.578 L 571.824 14.835 L 578.966 14.835 C 581.594 14.835 583.556 15.306 584.871 16.25 C 586.184 17.216 586.829 19.126 586.829 22.004 C 586.829 25.23 585.764 27.61 583.655 29.197 C 581.519 30.788 578.818 31.578 575.545 31.578 L 568.846 31.578 L 568.846 31.578 Z M 560.784 1.689 L 549.523 69.705 L 562.543 69.705 L 566.912 43.783 L 572.938 43.783 L 583.009 69.705 L 597.942 69.705 L 586.778 41.004 C 590.673 39.022 594.023 35.721 596.355 32.275 C 598.784 28.727 600 24.584 600 19.847 C 600 13.423 598.561 8.807 595.658 5.955 C 592.783 3.104 588.685 1.689 583.429 1.689 L 560.784 1.689 L 560.784 1.689 Z" style="fill-opacity: 1; fill: rgb(255, 255, 255);"/>
    <path id="path21" d="M 10.872 27.816 C 22.361 8.544 38.181 -3.486 46.204 0.907 C 54.209 5.319 51.388 24.515 39.874 43.774 C 28.384 63.049 12.567 75.076 4.562 70.682 C -3.461 66.274 -0.621 47.072 10.872 27.816 Z" style="fill-opacity: 1; fill: rgb(255, 255, 255);"/>
    <path id="path21_2_" d="M 62.277 27.816 C 73.77 8.544 89.587 -3.486 97.607 0.907 C 105.612 5.319 102.791 24.515 91.28 43.774 C 79.787 63.049 63.97 75.076 55.968 70.682 C 47.945 66.274 50.784 47.072 62.277 27.816 Z" style="fill-opacity: 1; fill: rgb(255, 255, 255);"/>
    <path id="path21_3_" d="M 113.683 27.816 C 125.173 8.541 140.993 -3.486 149.013 0.904 C 157.018 5.316 154.196 24.515 142.685 43.774 C 131.193 63.049 115.379 75.076 107.374 70.679 C 99.348 66.274 102.19 47.072 113.683 27.816 Z" style="fill-opacity: 1; fill: rgb(255, 255, 255);"/>
  </g>
  <path d="M 83.596 43.817 L 81.132 43.817 L 81.132 41.122 L 79.284 41.122 L 79.284 43.817 L 76.82 43.817 L 76.82 36.198 L 79.284 36.198 L 79.284 38.894 L 81.132 38.894 L 81.132 36.198 L 83.596 36.198 L 83.596 43.817 Z M 86.949 42.611 L 86.663 43.817 L 84.062 43.817 L 86.06 36.198 L 89.866 36.198 L 91.864 43.817 L 89.263 43.817 L 88.982 42.611 L 86.949 42.611 Z M 88.031 38.54 L 87.895 38.54 L 87.389 40.674 L 88.524 40.674 L 88.031 38.54 Z M 97.443 41.636 L 97.628 43.683 C 97.112 43.894 96.464 44 95.683 44 C 94.903 44 94.277 43.919 93.804 43.756 C 93.332 43.594 92.96 43.338 92.687 42.99 C 92.417 42.639 92.228 42.228 92.119 41.758 C 92.014 41.285 91.961 40.703 91.961 40.012 C 91.961 39.321 92.014 38.739 92.119 38.266 C 92.228 37.79 92.417 37.377 92.687 37.025 C 93.212 36.352 94.177 36.015 95.582 36.015 C 95.896 36.015 96.264 36.046 96.686 36.107 C 97.109 36.168 97.423 36.243 97.628 36.333 L 97.258 38.197 C 96.725 38.083 96.236 38.027 95.793 38.027 C 95.351 38.027 95.043 38.067 94.869 38.149 C 94.696 38.231 94.61 38.393 94.61 38.636 L 94.61 41.832 C 94.929 41.896 95.254 41.927 95.582 41.927 C 96.28 41.927 96.901 41.83 97.443 41.636 Z M 101.003 40.5 L 100.954 40.5 L 100.954 43.817 L 98.49 43.817 L 98.49 36.198 L 100.954 36.198 L 100.954 39.307 L 101.003 39.307 C 101.02 39.063 101.061 38.869 101.126 38.723 L 102.336 36.198 L 104.994 36.198 L 103.146 39.942 L 105.055 43.817 L 102.398 43.817 L 101.126 41.087 C 101.061 40.94 101.02 40.744 101.003 40.5 Z M 105.488 43.683 L 105.831 41.671 C 106.588 41.859 107.268 41.954 107.872 41.954 C 108.477 41.954 108.964 41.929 109.333 41.88 L 109.333 41.27 L 108.224 41.17 C 107.221 41.083 106.534 40.847 106.161 40.461 C 105.786 40.074 105.598 39.503 105.598 38.745 C 105.598 37.706 105.826 36.991 106.284 36.599 C 106.739 36.21 107.512 36.015 108.603 36.015 C 109.697 36.015 110.683 36.117 111.56 36.32 L 111.252 38.27 C 110.489 38.149 109.878 38.088 109.417 38.088 C 108.956 38.088 108.566 38.108 108.246 38.149 L 108.246 38.745 L 109.135 38.832 C 110.212 38.937 110.956 39.19 111.366 39.594 C 111.777 39.995 111.982 40.553 111.982 41.27 C 111.982 41.781 111.912 42.214 111.771 42.568 C 111.63 42.922 111.464 43.19 111.274 43.373 C 111.08 43.556 110.806 43.696 110.451 43.792 C 110.099 43.89 109.79 43.949 109.522 43.97 C 109.255 43.99 108.901 44 108.458 44 C 107.39 44 106.4 43.894 105.488 43.683 Z M 116.934 40.891 L 115.025 40.891 L 115.025 39.137 L 116.934 39.137 L 116.934 37.247 L 118.707 37.247 L 118.707 39.137 L 120.63 39.137 L 120.63 40.891 L 118.707 40.891 L 118.707 42.794 L 116.934 42.794 L 116.934 40.891 Z M 130.767 43.817 L 128.303 43.817 L 128.303 41.122 L 126.455 41.122 L 126.455 43.817 L 123.991 43.817 L 123.991 36.198 L 126.455 36.198 L 126.455 38.894 L 128.303 38.894 L 128.303 36.198 L 130.767 36.198 L 130.767 43.817 Z M 131.629 40.012 C 131.629 38.624 131.892 37.612 132.417 36.973 C 132.942 36.335 133.891 36.015 135.264 36.015 C 136.637 36.015 137.586 36.335 138.111 36.973 C 138.635 37.612 138.898 38.624 138.898 40.012 C 138.898 40.703 138.842 41.285 138.731 41.758 C 138.62 42.228 138.429 42.639 138.159 42.99 C 137.889 43.338 137.515 43.594 137.037 43.756 C 136.562 43.919 135.971 44 135.264 44 C 134.557 44 133.966 43.919 133.491 43.756 C 133.012 43.594 132.638 43.338 132.369 42.99 C 132.099 42.639 131.908 42.228 131.797 41.758 C 131.685 41.285 131.629 40.703 131.629 40.012 Z M 134.278 38.745 L 134.278 41.914 L 135.299 41.914 C 135.636 41.914 135.881 41.877 136.034 41.802 C 136.186 41.724 136.263 41.546 136.263 41.27 L 136.263 38.101 L 135.229 38.101 C 134.9 38.101 134.66 38.139 134.507 38.214 C 134.354 38.292 134.278 38.47 134.278 38.745 Z M 142.176 40.126 L 142.026 43.817 L 139.452 43.817 L 139.919 36.198 L 143.135 36.198 L 144.099 40.073 L 144.182 40.073 L 145.146 36.198 L 148.358 36.198 L 148.829 43.817 L 146.255 43.817 L 146.105 40.126 L 146.017 40.126 L 145.084 43.817 L 143.197 43.817 L 142.251 40.126 L 142.176 40.126 Z M 154.679 39.172 L 154.679 40.94 L 152.215 40.94 L 152.215 41.867 L 155.234 41.867 L 155.234 43.817 L 149.751 43.817 L 149.751 36.198 L 155.172 36.198 L 154.864 38.149 L 152.215 38.149 L 152.215 39.172 L 154.679 39.172 Z M 160.702 43.817 L 156.28 43.817 L 156.28 36.198 L 160.271 36.198 C 161.01 36.198 161.538 36.341 161.855 36.625 C 162.172 36.91 162.33 37.324 162.33 37.87 C 162.33 38.413 162.229 38.832 162.027 39.128 C 161.827 39.428 161.559 39.62 161.222 39.707 L 161.222 39.781 C 162.216 39.952 162.713 40.623 162.713 41.793 C 162.713 42.402 162.549 42.893 162.22 43.264 C 161.892 43.633 161.386 43.817 160.702 43.817 Z M 159.704 40.783 L 158.744 40.783 L 158.744 42.023 L 159.695 42.023 C 160.038 42.023 160.21 41.818 160.21 41.405 C 160.21 40.99 160.041 40.783 159.704 40.783 Z M 159.519 37.87 L 158.744 37.87 L 158.744 39.002 L 159.51 39.002 C 159.821 39.002 159.976 38.813 159.976 38.436 C 159.976 38.058 159.824 37.87 159.519 37.87 Z M 168.959 41.283 L 170.288 43.817 L 167.578 43.817 L 166.566 41.549 L 166.038 41.549 L 166.038 43.817 L 163.574 43.817 L 163.574 36.198 L 167.455 36.198 C 169.22 36.198 170.103 37.088 170.103 38.867 C 170.103 40.086 169.722 40.891 168.959 41.283 Z M 166.605 38.149 L 166.038 38.149 L 166.038 39.672 L 166.605 39.672 C 166.902 39.672 167.117 39.642 167.252 39.581 C 167.387 39.52 167.455 39.379 167.455 39.159 L 167.455 38.662 C 167.455 38.441 167.387 38.301 167.252 38.241 C 167.117 38.179 166.902 38.149 166.605 38.149 Z M 176.078 39.172 L 176.078 40.94 L 173.614 40.94 L 173.614 41.867 L 176.633 41.867 L 176.633 43.817 L 171.15 43.817 L 171.15 36.198 L 176.571 36.198 L 176.263 38.149 L 173.614 38.149 L 173.614 39.172 L 176.078 39.172 Z M 184.011 40.452 L 184.605 36.198 L 187.179 36.198 L 185.969 43.817 L 182.757 43.817 L 182.189 41.013 L 182.04 41.013 L 181.485 43.817 L 178.269 43.817 L 177.063 36.198 L 179.637 36.198 L 180.218 40.452 L 180.293 40.452 L 181.177 36.198 L 183.065 36.198 L 183.936 40.452 L 184.011 40.452 Z" style="fill: rgb(255, 255, 255); white-space: pre;"/>
</svg>

<svg xmlns="http://www.w3.org/2000/svg" viewBox="0 0 264 44"><path d="M225.74 59.59c-5.06 6.86-10.07 8.82-12.26 9.87a21 21 0 0 1-8.4 1.88q-12.21 0-19.05-7.94c-4.57-5.3-6.85-12.74-6.85-22.4q0-17.1 8.66-29.07Q196.5 0 210.84 0q10.85 0 17.8 6.13 6.95 6.11 6.95 19.17h-14.01q0-6.25-2.76-8.78-2.75-2.5-7.91-2.5-8.44 0-13.08 8.23-4.62 8.25-4.64 18.78.02 7.18 3 11.73 3.01 4.57 9.01 4.57 6.24-.01 9.72-3.55a21 21 0 0 0 5.11-9.06h-13.05l2.12-12.7h25.44l-2.15 12.3s-1.61 8.4-6.65 15.27m121-57.83-11.38 67.92H323.1l9.65-52.64-21.28 52.64h-10.05l-4.63-52.61-7.33 52.61h-12.4L288.4 1.76h17.39l3.89 47.83 19.55-47.95zm12.97 26.3h20.02l-2.08 13.17h-20.02l-2.58 14.46h22.6l-2.23 13.99H339.8l11.26-67.99h35.19l-2.15 14.09h-22.15zM253.03 1.64l-27.39 68.04H239l4.88-13.27h17.47l1.14 13.27h12.92l-7.74-68.04zm-4.91 43.16 9.92-27.06 2.3 27.06zm207.26 14.79c-5.06 6.86-10.06 8.82-12.25 9.87a21 21 0 0 1-8.4 1.88q-12.22 0-19.05-7.93-6.85-7.95-6.85-22.4 0-17.1 8.66-29.07 8.66-11.95 23-11.94 10.84 0 17.8 6.13 6.95 6.11 6.94 19.18h-14q0-6.26-2.76-8.78-2.75-2.5-7.92-2.51-8.43 0-13.07 8.24-4.63 8.25-4.64 18.77.01 7.18 3 11.73 3.01 4.58 9 4.57 6.25-.01 9.73-3.55a21 21 0 0 0 5.11-9.05h-13.05l2.11-12.7h25.45l-2.16 12.3s-1.61 8.38-6.65 15.26m26.15-31.51h19.99l-2.05 13.15h-20.02l-2.6 14.46h22.62l-2.24 14.02h-35.62l11.27-68.02h35.2l-2.16 14.09h-22.16zm44.25-26.41L498.4 69.7h13.37l4.86-13.27h17.49l1.14 13.27h12.9l-7.74-68.04zM520.9 44.8l9.9-27.06 2.33 27.06zm47.95-13.22 2.97-16.74h7.15q3.93 0 5.9 1.41 1.96 1.45 1.96 5.75 0 4.83-3.18 7.2-3.2 2.38-8.1 2.38zm-8.07-29.9L549.52 69.7h13.02l4.37-25.92h6.03L583 69.7h14.93L586.78 41a26.6 26.6 0 0 0 9.58-8.73A21.5 21.5 0 0 0 600 19.85q0-9.63-4.34-13.9T583.43 1.7zM10.87 27.82C22.37 8.54 38.18-3.48 46.2.9c8 4.4 5.19 23.6-6.33 42.86-11.49 19.28-27.3 31.3-35.3 26.91-8.03-4.4-5.2-23.6 6.3-42.86m51.41.01C73.77 8.54 89.58-3.48 97.6.9c8 4.4 5.18 23.6-6.33 42.86-11.5 19.28-27.31 31.3-35.31 26.91-8.02-4.4-5.19-23.6 6.3-42.86m51.42.01C125.18 8.54 141-3.48 149.01.9c8 4.42 5.19 23.62-6.32 42.87-11.5 19.28-27.31 31.3-35.32 26.9s-5.18-23.6 6.31-42.85" style="fill-opacity:1;fill:#fff" transform="scale(.44 .43537)"/><path d="M83.6 43.82h-2.47v-2.7h-1.85v2.7h-2.46V36.2h2.46v2.7h1.85v-2.7h2.47zm3.35-1.2-.29 1.2h-2.6l2-7.62h3.8l2 7.62h-2.6l-.28-1.2zm1.08-4.08h-.14l-.5 2.13h1.13zm9.41 3.1.19 2.04q-.78.32-1.95.32t-1.88-.24a2.4 2.4 0 0 1-1.11-.77 3 3 0 0 1-.57-1.23 8 8 0 0 1-.16-1.75q0-1.03.16-1.74.16-.72.57-1.25.78-1 2.9-1a8 8 0 0 1 2.04.31l-.37 1.87a7 7 0 0 0-1.47-.17q-.66 0-.92.12t-.26.49v3.2q.48.09.97.09 1.05 0 1.86-.3M101 40.5h-.05v3.32H98.5V36.2h2.46v3.1h.05q.03-.36.13-.58l1.2-2.52H105l-1.84 3.74 1.9 3.88h-2.65l-1.27-2.73q-.1-.23-.13-.59m4.49 3.18.34-2q1.14.27 2.04.27t1.46-.07v-.61l-1.1-.1q-1.5-.13-2.07-.7-.56-.6-.56-1.73 0-1.55.68-2.14t2.32-.59 2.96.31l-.3 1.95q-1.15-.18-1.84-.18t-1.17.06v.6l.89.08q1.61.15 2.23.76.6.6.61 1.68 0 .76-.2 1.3-.23.53-.5.8-.3.28-.83.42-.52.15-.93.18a15 15 0 0 1-4.03-.29m11.44-2.79h-1.9v-1.75h1.9v-1.9h1.78v1.9h1.92v1.75h-1.92v1.9h-1.78zm13.84 2.93h-2.47v-2.7h-1.85v2.7H124V36.2h2.47v2.7h1.84v-2.7h2.47zm.86-3.8q0-2.09.79-3.05.78-.95 2.84-.95 2.07 0 2.85.95.79.96.79 3.04 0 1.04-.17 1.75-.17.7-.57 1.23-.41.52-1.12.77-.72.24-1.78.24t-1.77-.24a2.3 2.3 0 0 1-1.12-.77 3 3 0 0 1-.57-1.23 8 8 0 0 1-.17-1.75m2.65-1.28v3.17h1.02q.5 0 .73-.1.23-.13.23-.54V38.1h-1.03q-.5 0-.72.11-.24.12-.23.53m7.9 1.39-.15 3.69h-2.58l.47-7.62h3.22l.96 3.87h.08l.97-3.87h3.2l.48 7.62h-2.58l-.15-3.7h-.08l-.94 3.7h-1.88l-.95-3.7zm12.5-.96v1.77h-2.47v.93h3.02v1.95h-5.48V36.2h5.42l-.3 1.95h-2.66v1.02zm6.02 4.65h-4.42V36.2h4q1.1 0 1.57.42.48.43.48 1.25 0 .81-.3 1.26t-.8.58v.07q1.48.26 1.48 2.01 0 .91-.49 1.47t-1.52.56m-1-3.04h-.96v1.24h.95q.52 0 .52-.62t-.5-.62m-.18-2.91h-.78V39h.77q.47 0 .47-.56t-.46-.57m9.44 3.41 1.33 2.54h-2.71l-1.01-2.27h-.53v2.27h-2.47V36.2h3.89q2.64 0 2.64 2.67 0 1.83-1.14 2.41m-2.36-3.13h-.56v1.52h.56q.45 0 .65-.09t.2-.42v-.5q0-.33-.2-.42-.2-.1-.65-.1m9.48 1.02v1.77h-2.47v.93h3.02v1.95h-5.48V36.2h5.42l-.3 1.95h-2.66v1.02zm7.93 1.28.6-4.25h2.57l-1.21 7.62h-3.21l-.57-2.8h-.15l-.55 2.8h-3.22l-1.2-7.62h2.57l.58 4.25h.07l.89-4.25h1.88l.88 4.25z" style="fill:#fff;white-space:pre"/></svg>
